X: 17732
T: Homecoming
R: jig
M: 6/8
K: Amajor
|:E3 ECE|FAB Ace|fec ecA|B2 e efg|
age f2 a|fec ecA|BAB cAE|1 FAF FAF:|2 FAF F2 g||
|:afe f2a|ecB A2 c|Bcd cde|f3 age|
f2 a fec|efe ecA|BAB cAE|1 FAF F3:|2 FAF FAF||

